packages/icons/src/components/Icon/assets/default-solid/doc-paper.svg

<svg width="20" height="20" viewBox="0 0 20 20" fill="none" xmlns="http://www.w3.org/2000/svg">
<path fill-rule="evenodd" clip-rule="evenodd" d="M5.14293 2C4.35395 2 3.71436 2.63959 3.71436 3.42857V16.5714C3.71436 17.3604 4.35395 18 5.14293 18H14.8572C15.6462 18 16.2858 17.3604 16.2858 16.5714V10.5714C16.2858 8.99347 15.0066 7.71429 13.4286 7.71429H12.0001C11.2111 7.71429 10.5715 7.07469 10.5715 6.28571V4.85714C10.5715 3.27919 9.29231 2 7.71436 2H5.14293ZM6.5715 12.2857C6.5715 11.9701 6.82734 11.7143 7.14293 11.7143H12.8572C13.1728 11.7143 13.4286 11.9701 13.4286 12.2857C13.4286 12.6013 13.1728 12.8571 12.8572 12.8571H7.14293C6.82734 12.8571 6.5715 12.6013 6.5715 12.2857ZM7.14293 14C6.82734 14 6.5715 14.2558 6.5715 14.5714C6.5715 14.887 6.82734 15.1429 7.14293 15.1429H10.0001C10.3157 15.1429 10.5715 14.887 10.5715 14.5714C10.5715 14.2558 10.3157 14 10.0001 14H7.14293Z" fill="#727683"/>
<path d="M10.74 2.24069C11.3471 2.94208 11.7144 3.85672 11.7144 4.85714V6.28571C11.7144 6.44351 11.8423 6.57143 12.0001 6.57143H13.4286C14.4291 6.57143 15.3437 6.9387 16.0451 7.54576C15.3686 4.9561 13.3297 2.91716 10.74 2.24069Z" fill="#727683"/>
</svg>

<svg xmlns="http://www.w3.org/2000/svg" width="20" height="20" fill="none" viewBox="0 0 20 20">
    <path fill="#727683" fill-rule="evenodd" d="M5.143 2a1.43 1.43 0 0 0-1.429 1.429V16.57c0 .79.64 1.429 1.429 1.429h9.714c.79 0 1.429-.64 1.429-1.429v-6a2.857 2.857 0 0 0-2.857-2.857H12c-.789 0-1.428-.64-1.428-1.428V4.857A2.857 2.857 0 0 0 7.714 2zm1.429 10.286a.57.57 0 0 1 .57-.572h5.715a.571.571 0 1 1 0 1.143H7.143a.57.57 0 0 1-.571-.571M7.142 14a.571.571 0 1 0 0 1.143H10A.571.571 0 0 0 10 14z" clip-rule="evenodd"/>
    <path fill="#727683" d="M10.74 2.24c.607.702.974 1.617.974 2.617v1.429c0 .158.128.285.286.285h1.429c1 0 1.915.368 2.616.975A7.44 7.44 0 0 0 10.74 2.24"/>
</svg>
